img/htmla-logo.svg

<svg viewBox="0 0 108 37" style="fill:#484846" xmlns="http://www.w3.org/2000/svg"><path d="M103.727 29.189c-.899 2.16-2.074 2.886-3.336 2.886a4.67 4.67 0 0 1-1.089-.138v-1.573c.277.087.571.121.847.121.899 0 1.573-.639 2.057-1.935l.173-.415-3.941-8.365h1.97l2.8 6.256 2.472-6.256h1.935l-3.888 9.419Zm-8.054-6.256c0-1.072-.64-1.745-1.642-1.745-.916 0-1.625.604-2.057 1.123.018.19.035.38.035.57v5.185H90.16v-5.133c0-1.072-.64-1.745-1.642-1.745-1.002 0-1.763.725-2.195 1.278v5.6h-1.849V19.77h1.642v1.037c.449-.501 1.417-1.261 2.765-1.261 1.244 0 2.108.518 2.592 1.33.726-.725 1.694-1.33 2.904-1.33 2.194 0 3.145 1.624 3.145 3.335v5.185h-1.849v-5.133Zm-19.322 1.676c.207 1.487 1.659 2.109 3.18 2.109a6.07 6.07 0 0 0 2.627-.588v1.59c-.76.364-1.815.571-2.973.571-2.54 0-4.701-1.452-4.701-4.373 0-3.007 2.282-4.372 4.2-4.372 3.301 0 4.442 2.661 3.906 5.063h-6.239Zm2.419-3.525c-1.244 0-2.367.743-2.436 2.143h4.597c.104-.726-.346-2.143-2.161-2.143Zm-7.742 5.669c-.64.812-1.625 1.538-3.18 1.538-2.506 0-4.113-1.988-4.113-4.373 0-2.385 1.607-4.372 4.113-4.372 1.452 0 2.419.639 2.989 1.296v-4.874h1.85v12.098h-1.659v-1.313Zm-.208-3.855c-.397-.898-1.348-1.728-2.644-1.728-1.486 0-2.575 1.124-2.575 2.748s1.089 2.748 2.575 2.748c1.296 0 2.247-.83 2.644-1.746v-2.022Zm.017-21.455h1.85v12.098h-1.85V1.443Zm-4.554 6.965c0-1.071-.64-1.745-1.642-1.745-.916 0-1.624.604-2.056 1.123.017.19.034.38.034.57v5.185H60.77V8.408c0-1.071-.639-1.745-1.642-1.745-1.002 0-1.763.726-2.195 1.278v5.6h-1.849V5.245h1.642v1.037c.449-.501 1.417-1.261 2.765-1.261 1.244 0 2.109.518 2.592 1.331.726-.727 1.694-1.331 2.904-1.331 2.195 0 3.145 1.624 3.145 3.335v5.185h-1.849V8.408Zm-8.494 12.745a7.398 7.398 0 0 0-2.99.639v-1.694c.657-.224 1.85-.552 3.18-.552 2.351 0 3.837 1.123 3.837 3.629v2.973c0 .466.277.605.605.605.19 0 .38-.053.553-.104v1.33c-.346.138-.76.208-1.175.208-.761 0-1.365-.294-1.659-.968-.813.657-1.832 1.071-3.129 1.071-1.503 0-2.903-.829-2.903-2.54 0-2.126 1.97-2.782 3.699-2.782.708 0 1.503.103 2.16.241v-.293c0-1.037-.761-1.763-2.178-1.763Zm.381 3.111c-1.055 0-2.161.328-2.161 1.365 0 .812.726 1.227 1.556 1.227.881 0 1.745-.329 2.402-.985v-1.4c-.501-.103-1.21-.207-1.797-.207ZM47.878 11.018V6.87h-1.486V5.245h1.486V2.739l1.832-.449v2.955h3.007V6.87H49.71v3.802c0 1.089.501 1.452 1.573 1.452.605 0 1.158-.121 1.676-.328v1.59c-.622.224-1.417.362-2.229.362-1.608 0-2.852-.795-2.852-2.73Zm2.428 8.528c.933 0 1.832.207 2.558.639v1.694c-.605-.432-1.452-.691-2.299-.691-1.469 0-2.955.777-2.955 2.73 0 1.884 1.434 2.731 2.921 2.731.881 0 1.762-.26 2.419-.639v1.71c-.795.38-1.693.57-2.748.57-2.212 0-4.476-1.347-4.476-4.303 0-3.093 2.368-4.441 4.58-4.441Zm-8.175 7.673c-.812.657-1.832 1.071-3.128 1.071-1.503 0-2.903-.829-2.903-2.54 0-2.126 1.97-2.782 3.698-2.782.709 0 1.504.103 2.161.241v-.293c0-1.037-.761-1.763-2.178-1.763a7.394 7.394 0 0 0-2.99.639v-1.694c.657-.224 1.849-.552 3.18-.552 2.35 0 3.837 1.123 3.837 3.629v2.973c0 .466.276.605.605.605.19 0 .38-.053.553-.104v1.33a3.238 3.238 0 0 1-1.175.208c-.761 0-1.366-.294-1.66-.968Zm-.172-2.748c-.502-.103-1.21-.207-1.798-.207-1.054 0-2.16.328-2.16 1.365 0 .812.726 1.227 1.555 1.227.882 0 1.746-.329 2.403-.985v-1.4Zm.838-15.821c0-1.348-.83-1.987-1.936-1.987-1.054 0-1.849.708-2.316 1.382v5.496h-1.849V1.443h1.849v4.718a3.778 3.778 0 0 1 2.679-1.14c2.091 0 3.422 1.417 3.422 3.387v5.133h-1.849V8.65ZM-.001 28.066V1.519L14.483.001l.152.015 14.332 1.503v26.547l-14.484 8.619-14.484-8.619Zm27.073-24.84L14.483 1.905 1.894 3.226v9.958l12.518-7.453V5.73h.003v.001l12.657 7.462V3.226ZM14.446 18.237l3.19 1.879.024-.014.997-.667-4.224-2.512.013-1.312 5.35 3.183.921-.543.14-.082.057-.034-6.481-3.854.013-1.313 7.582 4.511 1.59-.937 3.444-2.029-12.65-7.372V7.14L1.921 14.648l12.473 7.415 2.133-1.281-2.094-1.233.013-1.312Zm12.626-2.312-3.884 2.319v4.288l.011-.006v1.319l-8.716 5.215-8.633-5.189.012-1.312 8.631 5.134-.022-1.388-8.633-5.189.013-1.313 8.599 5.118-.021-1.352-12.535-7.461v10.881l12.589 7.491 12.589-7.491V15.925Z"/></svg>

<svg viewBox="0 0 108 37" style="fill: #484846" xmlns="http://www.w3.org/2000/svg">
  <path d="M103.727,29.189 C102.828,31.349 101.653,32.075 100.391,32.075 C100.028,32.075 99.665,32.024 99.302,31.937 L99.302,30.364 C99.579,30.451 99.873,30.485 100.149,30.485 C101.048,30.485 101.722,29.846 102.206,28.550 L102.379,28.135 L98.438,19.770 L100.408,19.770 L103.208,26.026 L105.680,19.770 L107.615,19.770 L103.727,29.189 ZM95.673,22.933 C95.673,21.861 95.033,21.188 94.031,21.188 C93.115,21.188 92.406,21.792 91.974,22.311 C91.992,22.501 92.009,22.691 92.009,22.881 L92.009,28.066 L90.160,28.066 L90.160,22.933 C90.160,21.861 89.520,21.188 88.518,21.188 C87.516,21.188 86.755,21.913 86.323,22.466 L86.323,28.066 L84.474,28.066 L84.474,19.770 L86.116,19.770 L86.116,20.807 C86.565,20.306 87.533,19.546 88.881,19.546 C90.125,19.546 90.989,20.064 91.473,20.876 C92.199,20.151 93.167,19.546 94.377,19.546 C96.571,19.546 97.522,21.170 97.522,22.881 L97.522,28.066 L95.673,28.066 L95.673,22.933 ZM76.351,24.609 C76.558,26.096 78.010,26.718 79.531,26.718 C80.533,26.718 81.449,26.476 82.158,26.130 L82.158,27.720 C81.398,28.084 80.343,28.291 79.185,28.291 C76.645,28.291 74.484,26.839 74.484,23.918 C74.484,20.911 76.766,19.546 78.684,19.546 C81.985,19.546 83.126,22.207 82.590,24.609 L76.351,24.609 ZM78.770,21.084 C77.526,21.084 76.403,21.827 76.334,23.227 L80.931,23.227 C81.035,22.501 80.585,21.084 78.770,21.084 ZM71.028,26.753 C70.388,27.565 69.403,28.291 67.848,28.291 C65.342,28.291 63.735,26.303 63.735,23.918 C63.735,21.533 65.342,19.546 67.848,19.546 C69.300,19.546 70.267,20.185 70.837,20.842 L70.837,15.968 L72.687,15.968 L72.687,28.066 L71.028,28.066 L71.028,26.753 ZM70.820,22.898 C70.423,22.000 69.472,21.170 68.176,21.170 C66.690,21.170 65.601,22.294 65.601,23.918 C65.601,25.542 66.690,26.666 68.176,26.666 C69.472,26.666 70.423,25.836 70.820,24.920 L70.820,22.898 ZM70.837,1.443 L72.687,1.443 L72.687,13.541 L70.837,13.541 L70.837,1.443 ZM66.283,8.408 C66.283,7.337 65.643,6.663 64.641,6.663 C63.725,6.663 63.017,7.267 62.585,7.786 C62.602,7.976 62.619,8.166 62.619,8.356 L62.619,13.541 L60.770,13.541 L60.770,8.408 C60.770,7.337 60.131,6.663 59.128,6.663 C58.126,6.663 57.365,7.389 56.933,7.941 L56.933,13.541 L55.084,13.541 L55.084,5.245 L56.726,5.245 L56.726,6.282 C57.175,5.781 58.143,5.021 59.491,5.021 C60.735,5.021 61.600,5.539 62.083,6.352 C62.809,5.625 63.777,5.021 64.987,5.021 C67.182,5.021 68.132,6.645 68.132,8.356 L68.132,13.541 L66.283,13.541 L66.283,8.408 ZM57.789,21.153 C56.562,21.153 55.543,21.464 54.799,21.792 L54.799,20.098 C55.456,19.874 56.649,19.546 57.979,19.546 C60.330,19.546 61.816,20.669 61.816,23.175 L61.816,26.148 C61.816,26.614 62.093,26.753 62.421,26.753 C62.611,26.753 62.801,26.700 62.974,26.649 L62.974,27.979 C62.628,28.117 62.214,28.187 61.799,28.187 C61.038,28.187 60.434,27.893 60.140,27.219 C59.327,27.876 58.308,28.290 57.011,28.290 C55.508,28.290 54.108,27.461 54.108,25.750 C54.108,23.624 56.078,22.968 57.807,22.968 C58.515,22.968 59.310,23.071 59.967,23.209 L59.967,22.916 C59.967,21.879 59.206,21.153 57.789,21.153 ZM58.170,24.264 C57.115,24.264 56.009,24.592 56.009,25.629 C56.009,26.441 56.735,26.856 57.565,26.856 C58.446,26.856 59.310,26.527 59.967,25.871 L59.967,24.471 C59.466,24.368 58.757,24.264 58.170,24.264 ZM47.878,11.018 L47.878,6.870 L46.392,6.870 L46.392,5.245 L47.878,5.245 L47.878,2.739 L49.710,2.290 L49.710,5.245 L52.717,5.245 L52.717,6.870 L49.710,6.870 L49.710,10.672 C49.710,11.761 50.211,12.124 51.283,12.124 C51.888,12.124 52.441,12.003 52.959,11.796 L52.959,13.386 C52.337,13.610 51.542,13.748 50.730,13.748 C49.122,13.748 47.878,12.953 47.878,11.018 ZM50.306,19.546 C51.239,19.546 52.138,19.753 52.864,20.185 L52.864,21.879 C52.259,21.447 51.412,21.188 50.565,21.188 C49.096,21.188 47.610,21.965 47.610,23.918 C47.610,25.802 49.044,26.649 50.531,26.649 C51.412,26.649 52.293,26.389 52.950,26.010 L52.950,27.720 C52.155,28.100 51.257,28.290 50.202,28.290 C47.990,28.290 45.726,26.943 45.726,23.987 C45.726,20.894 48.094,19.546 50.306,19.546 ZM42.131,27.219 C41.319,27.876 40.299,28.290 39.003,28.290 C37.500,28.290 36.100,27.461 36.100,25.750 C36.100,23.624 38.070,22.968 39.798,22.968 C40.507,22.968 41.302,23.071 41.959,23.209 L41.959,22.916 C41.959,21.879 41.198,21.153 39.781,21.153 C38.554,21.153 37.534,21.464 36.791,21.792 L36.791,20.098 C37.448,19.874 38.640,19.546 39.971,19.546 C42.321,19.546 43.808,20.669 43.808,23.175 L43.808,26.148 C43.808,26.614 44.084,26.753 44.413,26.753 C44.603,26.753 44.793,26.700 44.966,26.649 L44.966,27.979 C44.620,28.117 44.205,28.187 43.791,28.187 C43.030,28.187 42.425,27.893 42.131,27.219 ZM41.959,24.471 C41.457,24.368 40.749,24.264 40.161,24.264 C39.107,24.264 38.001,24.592 38.001,25.629 C38.001,26.441 38.727,26.856 39.556,26.856 C40.438,26.856 41.302,26.527 41.959,25.871 L41.959,24.471 ZM42.797,8.650 C42.797,7.302 41.967,6.663 40.861,6.663 C39.807,6.663 39.012,7.371 38.545,8.045 L38.545,13.541 L36.696,13.541 L36.696,1.443 L38.545,1.443 L38.545,6.161 C39.150,5.539 40.101,5.021 41.224,5.021 C43.315,5.021 44.646,6.438 44.646,8.408 L44.646,13.541 L42.797,13.541 L42.797,8.650 ZM-0.001,28.066 L-0.001,1.519 L14.483,0.001 L14.635,0.016 L28.967,1.519 L28.967,28.066 L14.483,36.685 L-0.001,28.066 ZM27.072,3.226 L14.483,1.905 L1.894,3.226 L1.894,13.184 L14.412,5.731 L14.412,5.730 L14.413,5.730 L14.415,5.730 L14.415,5.731 L27.072,13.193 L27.072,3.226 ZM14.446,18.237 L17.636,20.116 L17.660,20.102 L18.657,19.435 L14.433,16.923 L14.446,15.611 L19.796,18.794 L20.717,18.251 L20.857,18.169 L20.914,18.135 L14.433,14.281 L14.446,12.968 L22.028,17.479 L23.618,16.542 L27.062,14.513 L14.412,7.141 L14.412,7.140 L1.921,14.648 L14.394,22.063 L16.527,20.782 L14.433,19.549 L14.446,18.237 ZM27.072,15.925 L23.188,18.244 L23.188,21.541 L23.188,22.082 L23.188,22.532 L23.199,22.526 L23.199,23.845 L14.483,29.060 L5.850,23.871 L5.862,22.559 L14.493,27.693 L14.471,26.305 L5.838,21.116 L5.851,19.803 L14.450,24.921 L14.429,23.569 L1.894,16.108 L1.894,26.989 L14.483,34.480 L27.072,26.989 L27.072,15.925 Z"/>
</svg>
